rospo-light/24x24/actions/transform-scale-horizontal.svg

<svg height="24" viewBox="0 0 24 24" width="24" xmlns="http://www.w3.org/2000/svg"><path d="m .5078125 3.0078125a.50005.50005 0 0 0 -.5.5v16.9843755a.50005.50005 0 0 0  .5.5h7.0039063 8.9746092 7.00586a.50005.50005 0 0 0  .5-.5v-16.9843755a.50005.50005 0 0 0 -.5-.5h-7.00586-8.9746092zm.5 1h6.0039063v11.0722655h-3.0507813v-2l-2.953125 2.460938zm7.0039063 0h7.9746092v11.0722655h-7.9746092zm8.9746092 0h6.00586v11.5332035l-2.953126-2.460938v2h-3.052734zm-15.9785155 11.6113285 2.953125 2.460937v-2h3.0507813v3.91211h-6.0039063zm21.9843755 0v4.373047h-6.00586v-3.91211h3.052734v2zm-14.9804692.460937h7.9746092v3.91211h-7.9746092z" fill="#31363b"/><path d="m1 4v16h22v-16z" fill="#31363b" opacity=".3"/></svg>

<svg xmlns="http://www.w3.org/2000/svg" width="24" height="24" viewBox="0 0 24 24">
 <defs>
  <style id="current-color-scheme" type="text/css">
   .ColorScheme-Text { color:#31363b; } .ColorScheme-Highlight { color:#3daee9; }
  </style>
 </defs>
 <path style="fill:currentColor" class="ColorScheme-Text" d="M 0.5078125 3.0078125 A 0.50005 0.50005 0 0 0 0.0078125 3.5078125 L 0.0078125 20.492188 A 0.50005 0.50005 0 0 0 0.5078125 20.992188 L 7.5117188 20.992188 L 16.486328 20.992188 L 23.492188 20.992188 A 0.50005 0.50005 0 0 0 23.992188 20.492188 L 23.992188 3.5078125 A 0.50005 0.50005 0 0 0 23.492188 3.0078125 L 16.486328 3.0078125 L 7.5117188 3.0078125 L 0.5078125 3.0078125 z M 1.0078125 4.0078125 L 7.0117188 4.0078125 L 7.0117188 15.080078 L 3.9609375 15.080078 L 3.9609375 13.080078 L 1.0078125 15.541016 L 1.0078125 4.0078125 z M 8.0117188 4.0078125 L 15.986328 4.0078125 L 15.986328 15.080078 L 8.0117188 15.080078 L 8.0117188 4.0078125 z M 16.986328 4.0078125 L 22.992188 4.0078125 L 22.992188 15.541016 L 20.039062 13.080078 L 20.039062 15.080078 L 16.986328 15.080078 L 16.986328 4.0078125 z M 1.0078125 15.619141 L 3.9609375 18.080078 L 3.9609375 16.080078 L 7.0117188 16.080078 L 7.0117188 19.992188 L 1.0078125 19.992188 L 1.0078125 15.619141 z M 22.992188 15.619141 L 22.992188 19.992188 L 16.986328 19.992188 L 16.986328 16.080078 L 20.039062 16.080078 L 20.039062 18.080078 L 22.992188 15.619141 z M 8.0117188 16.080078 L 15.986328 16.080078 L 15.986328 19.992188 L 8.0117188 19.992188 L 8.0117188 16.080078 z"/>
 <path style="fill:currentColor;opacity:0.3" class="ColorScheme-Text" d="M 1 4 L 1 20 L 23 20 L 23 4 L 1 4 z"/>
</svg>
